!!!COM: Anonymous
!!!OTL@@LAT: Nicolai solemnia
!!!TXO: Latin
!!!ODT: 
!!!GTL: Hymnbook L 1642
!!!ARL: Biblioteka Diecezjalna w Sandomierzu 
!!!voices:	4
**kern	**text	**kern	**text	**kern	**text	**kern	**text
*staff4	*staff4	*staff3	*staff3	*staff2	*staff2	*staff1	*staff1
*I"Basso	*	*I"Canto III	*	*I"Canto II	*	*I"Canto I	*
=1-	=1-	=1-	=1-	=1-	=1-	=1-	=1-
*clefF4	*	*clefG2	*	*clefG2	*	*clefG2	*
*k[]	*	*k[]	*	*k[]	*	*k[]	*
*met(c|)	*	*met(c|)	*	*met(c|)	*	*met(c|)	*
*M2/2	*	*M2/2	*	*M2/2	*	*M2/2	*
2r	.	2r	.	2r	.	2r	.
2G\	Ni-	2g/	Ni-	2g/	Ni-	2dd\	Ni-
=2	=2	=2	=2	=2	=2	=2	=2
2G\	-co-	2dd\	-co-	2b\	-co-	2gg\	-co-
2G\	-la-	2b\	-la-	2dd\	-la-	2gg\	-la-
=3	=3	=3	=3	=3	=3	=3	=3
4C/	.	1ee	-i	1cc	-i	1gg	-i
4D\	.	.	.	.	.	.	.
4E\	-i	.	.	.	.	.	.
4F\	.	.	.	.	.	.	.
=4	=4	=4	=4	=4	=4	=4	=4
2G\	so-	2dd\	so-	2b\	so-	2gg\	so-
2A\	-le-	[2cc\	-le-	[2a/	-le-	2ee\	-le-
=5	=5	=5	=5	=5	=5	=5	=5
2F\	.	2cc\]	.	2a/]	.	2ff\	.
2G\	.	2b\	.	[2g/	.	2dd\	-mni-
=6	=6	=6	=6	=6	=6	=6	=6
1D	-mni-	1a	-mni-	2g/]	.	1dd	-a
.	.	.	.	2f#/	-mni-	.	.
=7	=7	=7	=7	=7	=7	=7	=7
2GG/	-a	2g/	-a	2g/	-a	2r	.
2G\	su-	2dd\	su-	2b\	su-	[2gg\	su-
=8	=8	=8	=8	=8	=8	=8	=8
2C/	-a	2ee\	-a	2cc\	-a	2gg\]	.
2C/	pre-	2ee\	pre-	2cc\	pre-	2gg\	-a
=9	=9	=9	=9	=9	=9	=9	=9
2G\	-ce[s]	2dd\	-ce[s]	2b\	-ce[s]	2gg\	pre-
4C/	fa-	[2gg\	fa-	[2ee\	fa-	[2gg\	-ce[s]
4D\	.	.	.	.	.	.	.
=10	=10	=10	=10	=10	=10	=10	=10
4E\	.	2gg\]	.	2ee\]	.	2gg\]	.
4F\	.	.	.	.	.	.	.
[2G\	.	4ff\	.	4dd\	.	[2gg\	fa-
.	.	4ee\	.	4cc\	.	.	.
=11	=11	=11	=11	=11	=11	=11	=11
2G\]	.	2dd\	.	2b\	.	2gg\]	.
2A\	-mi-	2cc\	-mi-	[2cc\	-mi-	4ee\	-mi-
.	.	.	.	.	.	4ff\	.
=12	=12	=12	=12	=12	=12	=12	=12
1G	-li-	1dd	-li-	2cc\]	.	1gg	-li-
.	.	.	.	2b\	-li-	.	.
=13	=13	=13	=13	=13	=13	=13	=13
1C	-a	1cc	-a	1cc	-a	1ee	-a
=14	=14	=14	=14	=14	=14	=14	=14
1C	De-	1cc	De-	1ee	De-	1gg	De-
=15	=15	=15	=15	=15	=15	=15	=15
2C/	-can-	2cc\	-can-	2ee\	-can-	2gg\	-can-
2C/	-tent	2cc\	-tent	2ee\	-tent	2gg\	-tent
=16	=16	=16	=16	=16	=16	=16	=16
2G\	in	2b\	in	2dd\	in	2gg\	in
2A\	ec-	2cc\	ec-	2cc\	ec-	4ee\	ec-
.	.	.	.	.	.	4ff\	.
=17	=17	=17	=17	=17	=17	=17	=17
[1G	-cle-	2.dd\	-cle-	2.b\	-cle-	1gg	-cle-
.	.	4cc\	.	4a/	.	.	.
=18	=18	=18	=18	=18	=18	=18	=18
2G\]	.	2b\	.	2b\	.	2dd\	.
2F\	.	2a/	.	[2a/	.	2ff\	.
=19	=19	=19	=19	=19	=19	=19	=19
2G\	.	2b\	.	2a/]	.	2dd\	.
2C/	.	2cc\	.	[2g/	.	2ee\	.
=20	=20	=20	=20	=20	=20	=20	=20
1D	-si-	1a	-si-	2g/]	.	1dd	-si-
.	.	.	.	2f#/	-si-	.	.
=21	=21	=21	=21	=21	=21	=21	=21
2GG/	-a	1g	-a	[1g	-a	1dd	-a
2G\	cum	.	.	.	.	.	.
=22	=22	=22	=22	=22	=22	=22	=22
2c\	can-	2r	.	1g]	.	1r	.
2B\	-ti-	2g/	cum	.	.	.	.
=23	=23	=23	=23	=23	=23	=23	=23
2c\	-co	2cc\	can-	2r	.	2cc\	cum
2G\	.	2b\	-ti-	2g/	cum	2dd\	can-
=24	=24	=24	=24	=24	=24	=24	=24
2C/	cum	2cc\	-co	2cc\	can-	2ee\	-ti-
2G\	can-	2dd\	cum	2b\	-ti-	2dd\	-co
=25	=25	=25	=25	=25	=25	=25	=25
2C/	-ti-	2ee\	can-	2cc\	-co	2cc\	cum
2G\	-co	2dd\	-ti-	2dd\	lae-	2b\	can-
=26	=26	=26	=26	=26	=26	=26	=26
2C/	.	1cc	-co	[1ee	.	2cc\	-ti-
[2c\	lae-	.	.	.	.	2cc\	-co
=27	=27	=27	=27	=27	=27	=27	=27
2c\]	.	[1gg	lae-	2ee\]	.	4cc\	lae-
.	.	.	.	.	.	4dd\	.
4B\	.	.	.	4dd\	.	4ee\	.
4A\	.	.	.	4cc\	.	4ff\	.
=28	=28	=28	=28	=28	=28	=28	=28
2G\	.	2gg\]	.	2b\	.	2gg\	.
2D\	.	2ff\	.	[2dd\	.	2aa\	.
=29	=29	=29	=29	=29	=29	=29	=29
2A\	.	2ee\	.	2dd\]	.	1aa	-ti-
2F\	-ti-	2ff\	-ti-	[2cc\	-ti-	.	.
=30	=30	=30	=30	=30	=30	=30	=30
1G	-ti-	1dd	-ti-	2cc\]	.	1gg	-ti-
.	.	.	.	2b\	-ti-	.	.
=31	=31	=31	=31	=31	=31	=31	=31
[1C	-a.	[1cc	-a.	[1cc	-a.	[1ee	-a.
=32	=32	=32	=32	=32	=32	=32	=32
1C]	.	1cc]	.	1cc]	.	1ee]	.
==	==	==	==	==	==	==	==
*-	*-	*-	*-	*-	*-	*-	*-
!!!GTL: Hymnbook L 1642
!!!EFL: 38/39
!!!YEM: Creative Commons CC/BY/NC/SA 4.0
!!!ENC: Marcin Konik
!!!END: 2015-02-24 
!!!EED: Marcin Konik
!!!EEV: 
!!!ONB: Translated from MusicXML and edited by Marcin Konik
!!!CharacterEncoding: utf-8
!!!RDF**kern: i=editorial accidental
!!muse2ps: z14jc180F
!!title: @{OTL}, @{GTL}: @{pag}, ed. @{ENC}
